images/media-partners/ulead-business-community-168-52.svg

<svg width="168" height="53" viewBox="0 0 168 53" fill="none" xmlns="http://www.w3.org/2000/svg">
<path d="M155.581 19.7984C155.581 22.3068 154.71 24.2948 152.969 25.7624C151.228 27.23 148.895 27.9638 145.97 27.9638H139.785V11.6338H145.97C148.895 11.6338 151.228 12.3676 152.969 13.8352C154.71 15.3028 155.581 17.2905 155.581 19.7984Z" fill="#161616"/>
<path d="M113.505 12.6117L108.865 22.696H118.142L113.505 12.6117ZM113.505 12.6117L108.865 22.696H118.142L113.505 12.6117ZM167.947 8.93839C167.947 8.93839 168.941 0.115467 158.303 0.051356C147.689 -0.0136579 49.5851 0.051356 49.1978 0.051356C49.0858 0.051356 40.1798 -0.294482 40.1798 8.80113V30.8806C40.1798 30.8806 40.0453 38.9576 49.1987 38.9576H159.451C159.451 38.9576 167.836 38.4158 167.951 30.0733C168.066 21.7308 167.946 8.93839 167.946 8.93839H167.947ZM69.1687 32.9691H47.7304V6.62949H54.5027V28.0019H69.1687V32.9691ZM95.6194 32.9691H72.9693V6.62949H95.075V11.5209H79.6974V17.2403H93.278V21.9818H79.6974V28.0777H95.6185L95.6194 32.9691ZM122.867 32.9691L120.277 27.3247H106.693L104.102 32.9691H97.1653L110.203 6.62949H116.885L129.965 32.9691H122.867ZM160.411 26.7242C159.058 28.7041 157.164 30.2407 154.727 31.3338C152.29 32.427 149.483 32.9727 146.307 32.9709H133.018V6.62949H146.307C149.483 6.62949 152.29 7.17519 154.727 8.26658C157.164 9.35797 159.059 10.8945 160.41 12.8762C161.761 14.858 162.437 17.1659 162.437 19.8002C162.437 22.4345 161.761 24.7425 160.41 26.7242H160.411ZM108.865 22.696H118.142L113.505 12.6117L108.865 22.696ZM113.505 12.6117L108.865 22.696H118.142L113.505 12.6117ZM113.505 12.6117L108.865 22.696H118.142L113.505 12.6117Z" fill="#161616"/>
<path d="M38.373 8.79845C38.373 8.79845 38.9789 0.0270936 30.2292 0.00632555C21.4795 -0.0144425 9.02771 0.0225789 9.02771 0.0225789C9.02771 0.0225789 -0.0587821 -0.765707 0.00803699 8.6621C0.0748561 18.0899 0.00803699 30.0451 0.00803699 30.0451C0.00803699 30.0451 -0.596947 38.858 8.6909 38.9266C17.9788 38.9953 29.3542 38.9266 29.3542 38.9266C29.3542 38.9266 38.3062 39.6779 38.373 30.2501C38.4398 20.8223 38.373 8.79845 38.373 8.79845ZM35.4835 21.9754C35.4835 25.7563 34.0539 28.6648 31.1945 30.7007C28.3351 32.7365 24.3377 33.7551 19.2023 33.7563C14.0656 33.7563 10.0679 32.7374 7.20914 30.6998C4.34977 28.6639 2.91978 25.7554 2.91918 21.9744V7.54334H11.2409V21.755C11.2409 26.3692 13.9121 28.6762 19.2546 28.6762C21.857 28.6762 23.8435 28.1179 25.2142 27.0012C26.5849 25.8846 27.2696 24.1358 27.2684 21.755V7.54334H35.4853L35.4835 21.9754Z" fill="#161616"/>
<path d="M8.55548 48.7794C8.85256 49.1767 9.00696 49.667 9.00696 50.2468C9.00696 51.0684 8.69424 51.7005 8.06879 52.143C7.44334 52.5854 6.52924 52.8069 5.3265 52.8075H0.574219V43.4258H5.06374C6.18341 43.4258 7.04303 43.6446 7.64259 44.0822C7.92982 44.2805 8.1629 44.5474 8.32061 44.8587C8.47832 45.17 8.55565 45.5158 8.54555 45.8647C8.55313 46.2929 8.44186 46.7149 8.2241 47.0837C8.00638 47.4427 7.69396 47.7348 7.32114 47.9279C7.81227 48.0736 8.24448 48.3715 8.55548 48.7785V48.7794ZM2.68624 45.061V47.2724H4.80007C5.32499 47.2724 5.7232 47.1785 5.99469 46.9907C6.26618 46.8029 6.40162 46.5259 6.40102 46.1599C6.40102 45.7933 6.26558 45.5198 5.99469 45.3364C5.7238 45.1531 5.32469 45.0656 4.80007 45.0656H2.68805L2.68624 45.061ZM6.43804 50.8897C6.72217 50.7018 6.86454 50.4117 6.86514 50.0192C6.86514 49.2415 6.30049 48.8529 5.17119 48.8535H2.68805V51.1714H5.16848C5.72832 51.1714 6.1509 51.0784 6.43804 50.8897Z" fill="#161616"/>
<path d="M12.0689 51.8531C11.3387 51.1115 10.9733 50.0532 10.9727 48.6783V43.4258H13.0991V48.5988C13.0991 50.2777 13.7818 51.1172 15.147 51.1172C15.8122 51.1172 16.3197 50.9143 16.6694 50.5086C17.0192 50.1029 17.1944 49.4663 17.195 48.5988V43.4258H19.2952V48.6783C19.2952 50.0538 18.9298 51.1121 18.199 51.8531C17.4683 52.5941 16.4464 52.965 15.1335 52.9656C13.8206 52.9656 12.7972 52.5947 12.0634 51.8531H12.0689Z" fill="#161616"/>
<path d="M22.732 52.6671C22.0542 52.4666 21.5094 52.2054 21.0977 51.8833L21.82 50.249C22.2468 50.5604 22.7213 50.8004 23.225 50.9596C23.7489 51.1358 24.2976 51.2273 24.8504 51.2305C25.4523 51.2305 25.8987 51.1402 26.1894 50.9596C26.4802 50.779 26.6244 50.5355 26.622 50.2291C26.6238 50.1233 26.6017 50.0184 26.5575 49.9223C26.5133 49.8262 26.448 49.7412 26.3664 49.6738C26.1729 49.5135 25.9499 49.3926 25.71 49.318C25.4391 49.2277 25.0779 49.1302 24.6264 49.0245C24.0448 48.8892 23.4719 48.7188 22.9108 48.5144C22.4643 48.3449 22.0688 48.0635 21.7622 47.6972C21.4426 47.3207 21.2828 46.8222 21.2828 46.1965C21.2772 45.6708 21.4281 45.1553 21.7162 44.7156C22.0051 44.2732 22.4407 43.9225 23.0228 43.6637C23.6049 43.4048 24.3158 43.2754 25.1556 43.2754C25.7341 43.2749 26.3105 43.3468 26.8712 43.4894C27.3917 43.6133 27.8894 43.8187 28.3457 44.098L27.6893 45.7468C26.8405 45.255 25.9917 45.0091 25.1429 45.0091C24.5479 45.0091 24.1072 45.1084 23.8237 45.3043C23.6916 45.3862 23.5829 45.5008 23.5081 45.637C23.4333 45.7732 23.3949 45.9264 23.3966 46.0818C23.3966 46.4032 23.5609 46.6434 23.8887 46.7978C24.2165 46.9522 24.7176 47.1085 25.3912 47.2611C25.9743 47.3959 26.5487 47.5657 27.1114 47.7694C27.5551 47.9377 27.9498 48.2139 28.2599 48.5731C28.5796 48.9397 28.7391 49.4357 28.7385 50.0611C28.7429 50.5831 28.5897 51.0942 28.2988 51.5276C28.0056 51.9712 27.5659 52.3219 26.9795 52.5795C26.3932 52.8371 25.6799 52.9669 24.8395 52.9687C24.1264 52.9705 23.4167 52.8686 22.7329 52.6662L22.732 52.6671Z" fill="#161616"/>
<path d="M30.6758 43.4258H32.805V52.8066H30.6758V43.4258Z" fill="#161616"/>
<path d="M43.8453 43.4258V52.8066H42.0954L37.5146 47.1117V52.8066H35.418V43.4258H37.1769L41.7459 49.1208V43.4258H43.8453Z" fill="#161616"/>
<path d="M53.6036 51.0639V52.8075H46.4883V43.4258H53.432V45.1676H48.6012V47.2092H52.8677V48.8977H48.6012V51.0648H53.6036V51.0639Z" fill="#161616"/>
<path d="M56.65 52.6671C55.9722 52.4666 55.4274 52.2054 55.0156 51.8833L55.738 50.249C56.1647 50.5604 56.6393 50.8004 57.143 50.9596C57.6669 51.1358 58.2156 51.2273 58.7683 51.2305C59.3703 51.2305 59.8167 51.1402 60.1074 50.9596C60.3982 50.779 60.5423 50.5355 60.5399 50.2291C60.5417 50.1233 60.5197 50.0184 60.4755 49.9223C60.4312 49.8262 60.3659 49.7412 60.2844 49.6738C60.0909 49.5135 59.8679 49.3926 59.6279 49.318C59.3571 49.2277 58.9959 49.1302 58.5444 49.0245C57.9628 48.8892 57.3899 48.7188 56.8288 48.5144C56.3822 48.3449 55.9867 48.0635 55.6802 47.6972C55.3606 47.3207 55.2007 46.8222 55.2007 46.1965C55.1952 45.6708 55.346 45.1553 55.6342 44.7156C55.9231 44.2732 56.3586 43.9225 56.9407 43.6637C57.5228 43.4048 58.2338 43.2754 59.0735 43.2754C59.6521 43.2749 60.2284 43.3468 60.7892 43.4894C61.3088 43.6159 61.8053 43.8237 62.2601 44.1052L61.6036 45.754C60.7548 45.2622 59.9061 45.0163 59.0573 45.0163C58.4622 45.0163 58.0216 45.1156 57.738 45.3116C57.606 45.3935 57.4973 45.508 57.4225 45.6442C57.3476 45.7804 57.3092 45.9336 57.3109 46.089C57.3109 46.4105 57.4753 46.6507 57.8031 46.8051C58.1308 46.9595 58.632 47.1157 59.3056 47.2683C59.8871 47.4033 60.46 47.5731 61.0212 47.7767C61.4649 47.9449 61.8597 48.2211 62.1698 48.5803C62.4894 48.9469 62.6489 49.4429 62.6483 50.0684C62.6528 50.5903 62.4995 51.1014 62.2086 51.5348C61.9154 51.9784 61.4757 52.3291 60.8894 52.5867C60.3031 52.8444 59.5897 52.9741 58.7494 52.9759C58.0368 52.9751 57.3281 52.8707 56.6455 52.6662L56.65 52.6671Z" fill="#161616"/>
<path d="M65.4469 52.6641C64.769 52.4636 64.2242 52.2023 63.8125 51.8803L64.5349 50.2459C64.9616 50.5574 65.4361 50.7974 65.9399 50.9566C66.4638 51.1328 67.0125 51.2243 67.5652 51.2274C68.1672 51.2274 68.6135 51.1371 68.9043 50.9566C69.195 50.776 69.3392 50.5325 69.3368 50.2261C69.3386 50.1203 69.3166 50.0154 69.2723 49.9193C69.2281 49.8231 69.1628 49.7382 69.0813 49.6707C68.8878 49.5104 68.6648 49.3896 68.4248 49.315C68.1539 49.2247 67.7927 49.1272 67.3413 49.0215C66.7596 48.8861 66.1867 48.7158 65.6256 48.5113C65.1783 48.3398 64.7827 48.0559 64.4771 47.6869C64.1574 47.3104 63.9976 46.812 63.9976 46.1862C63.9921 45.6605 64.1429 45.1451 64.431 44.7054C64.72 44.2629 65.1555 43.9123 65.7376 43.6534C66.3197 43.3946 67.0307 43.2651 67.8704 43.2651C68.449 43.2646 69.0253 43.3365 69.586 43.4791C70.1057 43.6056 70.6022 43.8135 71.0569 44.095L70.4005 45.7438C69.5517 45.252 68.7029 45.006 67.8542 45.006C67.2591 45.006 66.8185 45.1054 66.5349 45.3013C66.4029 45.3832 66.2941 45.4978 66.2193 45.634C66.1445 45.7702 66.1061 45.9234 66.1078 46.0788C66.1078 46.4002 66.2722 46.6404 66.5999 46.7948C66.9277 46.9492 67.4289 47.1054 68.1025 47.258C68.6855 47.3929 69.2599 47.5627 69.8226 47.7664C70.2663 47.9346 70.6611 48.2108 70.9712 48.57C71.2908 48.9366 71.4503 49.4327 71.4497 50.0581C71.4542 50.58 71.3009 51.0912 71.01 51.5245C70.7168 51.9682 70.2771 52.3188 69.6908 52.5765C69.1044 52.8341 68.3911 52.9638 67.5508 52.9656C66.8376 52.9674 66.128 52.8655 65.4441 52.6631L65.4469 52.6641Z" fill="#161616"/>
<path d="M79.3718 52.3432C78.6291 51.9419 78.0114 51.3436 77.5867 50.614C77.161 49.8501 76.9375 48.9901 76.9375 48.1155C76.9375 47.241 77.161 46.381 77.5867 45.617C78.0115 44.8877 78.6292 44.2897 79.3718 43.8888C80.1559 43.4667 81.035 43.2522 81.9254 43.2657C82.6675 43.2552 83.4035 43.4014 84.0853 43.6946C84.7174 43.9703 85.2746 44.3929 85.7106 44.9272L84.3381 46.2148C83.7169 45.4828 82.947 45.1165 82.0284 45.1159C81.4969 45.1054 80.9721 45.2353 80.5069 45.4924C80.0647 45.7431 79.7025 46.1137 79.4621 46.5615C79.2159 47.0425 79.0874 47.5752 79.0874 48.1155C79.0874 48.6559 79.2159 49.1886 79.4621 49.6695C79.7023 50.1163 80.0642 50.4858 80.506 50.735C80.971 50.9948 81.4967 51.1266 82.0293 51.117C82.9485 51.117 83.7184 50.7465 84.339 50.0054L85.7052 51.2912C85.2721 51.8321 84.7145 52.26 84.0799 52.5382C83.3955 52.8314 82.6572 52.9775 81.9128 52.9671C81.0268 52.9796 80.1524 52.7652 79.3728 52.3441L79.3718 52.3432Z" fill="#161616"/>
<path d="M89.2604 52.3364C88.513 51.9343 87.8907 51.3342 87.4617 50.6018C87.0361 49.8426 86.8125 48.9868 86.8125 48.1164C86.8125 47.246 87.0361 46.3902 87.4617 45.631C87.8907 44.8986 88.513 44.2985 89.2604 43.8964C90.0562 43.4829 90.9398 43.2671 91.8366 43.2671C92.7334 43.2671 93.617 43.4829 94.4127 43.8964C95.1585 44.3008 95.7802 44.9004 96.2114 45.631C96.6417 46.3887 96.8679 47.2451 96.8679 48.1164C96.8679 48.9877 96.6417 49.8441 96.2114 50.6018C95.7807 51.3328 95.1589 51.9325 94.4127 52.3364C93.6171 52.7504 92.7335 52.9666 91.8366 52.9666C90.9397 52.9666 90.056 52.7504 89.2604 52.3364ZM93.3111 50.7354C93.7469 50.4829 94.1037 50.114 94.3414 49.6699C94.5871 49.1888 94.7152 48.6562 94.7152 48.1159C94.7152 47.5757 94.5871 47.0431 94.3414 46.5619C94.1032 46.1183 93.7465 45.7494 93.3111 45.4964C92.8615 45.2459 92.3553 45.1145 91.8407 45.1145C91.326 45.1145 90.8198 45.2459 90.3702 45.4964C89.9346 45.7492 89.5778 46.1181 89.3399 46.5619C89.0942 47.0431 88.9661 47.5757 88.9661 48.1159C88.9661 48.6562 89.0942 49.1888 89.3399 49.6699C89.5776 50.114 89.9344 50.4829 90.3702 50.7354C90.8198 50.9859 91.326 51.1174 91.8407 51.1174C92.3553 51.1174 92.8615 50.9859 93.3111 50.7354Z" fill="#161616"/>
<path d="M107.292 52.8075L107.278 47.1794L104.575 51.8143H103.616L100.926 47.2995V52.8075H98.9297V43.4258H100.69L104.132 49.2544L107.518 43.4258H109.263L109.289 52.8057H107.292V52.8075Z" fill="#161616"/>
<path d="M120.276 52.8075L120.263 47.1794L117.559 51.8143H116.6L113.911 47.2995V52.8075H111.914V43.4258H113.674L117.113 49.2544L120.499 43.4258H122.245L122.271 52.8057H120.276V52.8075Z" fill="#161616"/>
<path d="M125.9 51.8526C125.169 51.111 124.804 50.0527 124.805 48.6778V43.4253H126.93V48.5984C126.93 50.2773 127.613 51.1167 128.978 51.1167C129.644 51.1167 130.152 50.9138 130.501 50.5081C130.851 50.1024 131.027 49.4658 131.028 48.5984V43.4253H133.128V48.6778C133.128 50.0533 132.763 51.1116 132.033 51.8526C131.303 52.5937 130.279 52.9645 128.963 52.9651C127.649 52.9651 126.625 52.5943 125.893 51.8526H125.9Z" fill="#161616"/>
<path d="M144.111 43.4258V52.8066H142.366L137.784 47.1117V52.8066H135.684V43.4258H137.443L142.011 49.1208V43.4258H144.111Z" fill="#161616"/>
<path d="M146.73 43.4258H148.857V52.8066H146.73V43.4258Z" fill="#161616"/>
<path d="M153.386 45.1951H150.445V43.4253H158.453V45.1951H155.513V52.8062H153.386V45.1951Z" fill="#161616"/>
<path d="M164.289 49.4819V52.8066H162.162V49.4558L158.605 43.4258H160.863L163.318 47.5929L165.773 43.4258H167.861L164.29 49.4819H164.289Z" fill="#161616"/>
</svg>

<svg width="168" height="53" fill="none" xmlns="http://www.w3.org/2000/svg"><path d="M155.581 19.798c0 2.509-.871 4.497-2.612 5.964-1.741 1.468-4.074 2.202-6.999 2.202h-6.185v-16.33h6.185c2.925 0 5.258.734 6.999 2.201 1.741 1.468 2.612 3.456 2.612 5.963z" fill="#161616"/><path d="M113.505 12.612l-4.64 10.084h9.277l-4.637-10.084zm0 0l-4.64 10.084h9.277l-4.637-10.084zm54.442-3.674s.994-8.823-9.644-8.887c-10.614-.065-108.718 0-109.105 0-.112 0-9.018-.345-9.018 8.75v22.08s-.135 8.077 9.019 8.077H159.45s8.385-.542 8.5-8.885c.115-8.342-.005-21.135-.005-21.135h.001zM69.169 32.97H47.73V6.63h6.773v21.373h14.666v4.967zm26.45 0H72.97V6.63h22.106v4.892H79.697v5.72h13.581v4.74h-13.58v6.097h15.92l.001 4.891zm27.248 0l-2.59-5.644h-13.584l-2.591 5.644h-6.937l13.038-26.34h6.682l13.08 26.34h-7.098zm37.544-6.245c-1.353 1.98-3.247 3.517-5.684 4.61-2.437 1.093-5.244 1.639-8.42 1.637h-13.289V6.629h13.289c3.176 0 5.983.546 8.42 1.638 2.437 1.091 4.332 2.628 5.683 4.61 1.351 1.981 2.027 4.289 2.027 6.923 0 2.634-.676 4.942-2.027 6.924h.001zm-51.546-4.028h9.277l-4.637-10.084-4.64 10.084zm4.64-10.084l-4.64 10.084h9.277l-4.637-10.084zm0 0l-4.64 10.084h9.277l-4.637-10.084zM38.373 8.798s.606-8.77-8.144-8.792C21.48-.014 9.028.023 9.028.023S-.06-.766.008 8.663c.067 9.427 0 21.382 0 21.382s-.605 8.813 8.683 8.882c9.288.068 20.663 0 20.663 0s8.952.75 9.019-8.677c.067-9.428 0-21.452 0-21.452zm-2.89 13.177c0 3.781-1.43 6.69-4.288 8.726-2.86 2.035-6.857 3.054-11.993 3.055-5.136 0-9.134-1.019-11.993-3.056-2.86-2.036-4.29-4.945-4.29-8.726V7.544h8.322v14.211c0 4.614 2.671 6.921 8.014 6.921 2.602 0 4.588-.558 5.96-1.675 1.37-1.116 2.055-2.865 2.053-5.246V7.543h8.217l-.002 14.432zM8.555 48.78c.298.397.452.887.452 1.467 0 .821-.313 1.453-.938 1.896-.626.442-1.54.664-2.743.664H.575v-9.381h4.49c1.12 0 1.979.219 2.579.656a2.093 2.093 0 01.903 1.783c.007.428-.104.85-.322 1.219-.218.359-.53.65-.903.844a2.42 2.42 0 011.234.85v.001zm-5.869-3.72v2.211H4.8c.525 0 .923-.093 1.195-.281.271-.188.407-.465.406-.831 0-.367-.135-.64-.406-.824-.271-.183-.67-.27-1.195-.27H2.688l-.002-.005zm3.752 5.829c.284-.188.427-.478.427-.87 0-.779-.565-1.167-1.694-1.167H2.688v2.318h2.48c.56 0 .983-.093 1.27-.281zm5.631.964c-.73-.742-1.096-1.8-1.096-3.175v-5.252h2.126v5.173c0 1.679.683 2.518 2.048 2.518.665 0 1.173-.203 1.522-.608.35-.406.525-1.043.526-1.91v-5.173h2.1v5.252c0 1.376-.365 2.434-1.096 3.175-.73.741-1.753 1.112-3.066 1.113-1.312 0-2.336-.371-3.07-1.113h.006zm10.663.814c-.678-.2-1.223-.462-1.634-.784l.722-1.634a4.88 4.88 0 001.405.71 5.193 5.193 0 001.625.271c.602 0 1.049-.09 1.34-.27.29-.181.434-.425.432-.73a.706.706 0 00-.256-.556 1.925 1.925 0 00-.656-.356c-.27-.09-.632-.188-1.084-.293a14.829 14.829 0 01-1.715-.51 2.788 2.788 0 01-1.149-.818c-.32-.376-.48-.875-.48-1.5a2.65 2.65 0 01.434-1.481c.29-.443.725-.794 1.307-1.052.582-.26 1.293-.389 2.133-.389.578 0 1.155.072 1.715.214.52.124 1.018.33 1.475.609l-.657 1.649c-.849-.492-1.697-.738-2.546-.738-.595 0-1.036.1-1.32.295a.903.903 0 00-.426.778c0 .321.164.561.492.716.328.154.829.31 1.502.463a15.08 15.08 0 011.72.508c.444.169.839.445 1.149.804.32.367.48.863.478 1.488a2.592 2.592 0 01-.44 1.467c-.292.443-.732.794-1.318 1.052-.587.257-1.3.387-2.14.389a7.357 7.357 0 01-2.107-.303l-.001.001zm7.944-9.241h2.129v9.38h-2.13v-9.38zm13.169 0v9.38h-1.75l-4.58-5.694v5.695h-2.097v-9.381h1.759l4.569 5.695v-5.695h2.1zm9.759 7.638v1.743h-7.116v-9.381h6.944v1.742h-4.83v2.041h4.266v1.689H48.6v2.167h5.003v-.001zm3.046 1.603c-.678-.2-1.223-.462-1.634-.784l.722-1.634a4.88 4.88 0 001.405.71 5.193 5.193 0 001.625.271c.602 0 1.049-.09 1.34-.27.29-.181.434-.425.432-.73a.706.706 0 00-.256-.556 1.925 1.925 0 00-.656-.356c-.27-.09-.632-.188-1.084-.293a14.829 14.829 0 01-1.715-.51 2.787 2.787 0 01-1.149-.818c-.32-.376-.48-.875-.48-1.5a2.65 2.65 0 01.434-1.481c.29-.443.725-.794 1.307-1.052.582-.26 1.293-.389 2.133-.389.578 0 1.154.072 1.715.214.52.127 1.016.335 1.471.616l-.656 1.649c-.85-.492-1.698-.738-2.547-.738-.595 0-1.035.1-1.319.296a.903.903 0 00-.427.777c0 .322.164.562.492.716.328.154.829.31 1.503.463.581.135 1.154.305 1.715.509.444.168.839.444 1.149.803.32.367.479.863.478 1.488a2.591 2.591 0 01-.44 1.467c-.293.443-.732.794-1.319 1.052-.586.257-1.3.387-2.14.389a7.36 7.36 0 01-2.104-.31l.005.001zm8.797-.003c-.678-.2-1.223-.462-1.635-.784l.723-1.634a4.88 4.88 0 001.405.71 5.19 5.19 0 001.625.271c.602 0 1.049-.09 1.34-.27.29-.181.434-.425.432-.73a.704.704 0 00-.256-.556 1.924 1.924 0 00-.656-.356c-.271-.09-.632-.188-1.084-.293a14.825 14.825 0 01-1.715-.51 2.786 2.786 0 01-1.149-.825c-.32-.377-.48-.875-.48-1.5a2.651 2.651 0 01.434-1.482c.289-.442.725-.793 1.307-1.052.582-.258 1.293-.388 2.132-.388.579 0 1.155.072 1.716.214.52.127 1.016.334 1.47.616l-.656 1.649c-.848-.492-1.697-.738-2.546-.738-.595 0-1.035.1-1.32.295a.904.904 0 00-.426.778c0 .321.164.561.492.716.328.154.829.31 1.503.463a15.14 15.14 0 011.72.508c.443.169.838.445 1.148.804.32.367.48.863.479 1.488a2.591 2.591 0 01-.44 1.467c-.293.443-.733.794-1.32 1.052-.586.257-1.299.387-2.14.389a7.358 7.358 0 01-2.106-.303l.003.001zm13.925-.321a4.59 4.59 0 01-1.785-1.729 5.133 5.133 0 010-4.997 4.588 4.588 0 011.785-1.728 5.22 5.22 0 012.553-.623 5.278 5.278 0 012.16.429c.632.275 1.19.698 1.626 1.232l-1.373 1.288c-.621-.732-1.391-1.099-2.31-1.1a3.022 3.022 0 00-1.521.377 2.696 2.696 0 00-1.045 1.07 3.411 3.411 0 000 3.108c.24.446.602.816 1.044 1.065.465.26.99.392 1.523.382.92 0 1.69-.37 2.31-1.112l1.366 1.286a4.28 4.28 0 01-1.625 1.247 5.315 5.315 0 01-2.167.43 5.19 5.19 0 01-2.54-.624h-.001zm9.888-.007a4.623 4.623 0 01-1.798-1.734 5.083 5.083 0 010-4.971 4.623 4.623 0 011.798-1.735 5.587 5.587 0 015.153 0 4.678 4.678 0 011.798 1.735 5.033 5.033 0 010 4.97 4.665 4.665 0 01-1.798 1.735 5.58 5.58 0 01-5.153 0zm4.051-1.6a2.709 2.709 0 001.03-1.066 3.417 3.417 0 000-3.108 2.721 2.721 0 00-1.03-1.066 3.021 3.021 0 00-2.94 0 2.715 2.715 0 00-1.031 1.066 3.417 3.417 0 000 3.108c.238.444.594.813 1.03 1.065a3.021 3.021 0 002.941 0zm13.981 2.071l-.014-5.628-2.703 4.635h-.959l-2.69-4.514v5.508H98.93v-9.382h1.76l3.442 5.828 3.386-5.828h1.745l.026 9.38h-1.997v.002zm12.984 0l-.013-5.628-2.704 4.635h-.959l-2.689-4.514v5.508h-1.997v-9.382h1.76l3.439 5.828 3.386-5.828h1.746l.026 9.38h-1.995v.002zm5.624-.954c-.731-.742-1.096-1.8-1.095-3.175v-5.253h2.125v5.173c0 1.68.683 2.519 2.048 2.519.666 0 1.174-.203 1.523-.609.35-.406.526-1.042.527-1.91v-5.173h2.1v5.253c0 1.375-.365 2.434-1.095 3.175-.73.74-1.754 1.111-3.07 1.112-1.314 0-2.338-.37-3.07-1.112h.007zm18.211-8.427v9.38h-1.745l-4.582-5.694v5.695h-2.1v-9.381h1.759l4.568 5.695v-5.695h2.1zm2.619 0h2.127v9.38h-2.127v-9.38zm6.656 1.769h-2.941v-1.77h8.008v1.77h-2.94v7.611h-2.127v-7.61zm10.903 4.287v3.325h-2.127v-3.351l-3.557-6.03h2.258l2.455 4.167 2.455-4.167h2.088l-3.571 6.056h-.001z" fill="#161616"/></svg>
